packages/icons/src/pin-circle-fill.svg

<svg width="24" height="24" viewBox="0 0 24 24" fill="none" xmlns="http://www.w3.org/2000/svg">
<path fill-rule="evenodd" clip-rule="evenodd" d="M13 21V23H11V21H13ZM12 1C16.4183 1 20 4.58172 20 9C20 11.8805 18.4102 14.4172 15.8722 15.983L15.3494 16.2956C15.1772 16.4028 15.0147 16.512 14.8618 16.623C14.0665 17.2005 13.5653 17.7933 13.2714 18.3836L13.2417 18.4487L13.1747 18.6211L12.9467 19.2685L12.8814 19.4345C12.8501 19.5082 12.8212 19.5658 12.7962 19.5978L12.7491 19.6535L12.6692 19.7401C12.6218 19.7855 12.5749 19.8169 12.5041 19.846L12.4245 19.8748L12.2506 19.9244L12 19.9877L11.6551 19.899C11.4941 19.8534 11.4184 19.8186 11.3473 19.7552L11.2936 19.7016L11.2048 19.5991C11.1881 19.5778 11.1697 19.5451 11.15 19.5038L11.0873 19.3569L11.0538 19.2693L10.8242 18.6197L10.7893 18.5269L10.7265 18.3808C10.4294 17.7872 9.92232 17.1908 9.11754 16.6097C8.96643 16.5006 8.80615 16.3933 8.63641 16.2879L8.11799 15.9782C5.58274 14.4145 4 11.8805 4 9C4 4.58172 7.58172 1 12 1ZM12 6C13.6569 6 15 7.34315 15 9C15 10.6569 13.6569 12 12 12C10.3431 12 9 10.6569 9 9C9 7.34315 10.3431 6 12 6Z" fill="black"/>
</svg>

<svg xmlns="http://www.w3.org/2000/svg" width="24" height="24" fill="none" viewBox="0 0 24 24">
  <path fill="#000" fill-rule="evenodd" d="M13 21v2h-2v-2h2ZM12 1a8 8 0 0 1 8 8c0 2.88-1.59 5.417-4.128 6.983l-.523.313a8.264 8.264 0 0 0-.487.327c-.796.578-1.297 1.17-1.59 1.76l-.03.066-.067.172-.228.648-.066.166a.806.806 0 0 1-.085.163l-.047.056-.08.086a.49.49 0 0 1-.165.106l-.08.029-.173.05-.251.063-.345-.089c-.16-.046-.237-.08-.308-.144l-.053-.053-.09-.103a.54.54 0 0 1-.054-.095l-.063-.147-.033-.088-.23-.65-.035-.092-.063-.146c-.297-.594-.804-1.19-1.608-1.771a8.314 8.314 0 0 0-.482-.322l-.518-.31C5.583 14.415 4 11.88 4 9a8 8 0 0 1 8-8Zm0 5a3 3 0 1 1 0 6 3 3 0 0 1 0-6Z" clip-rule="evenodd"/>
</svg>
